X:89
T:Steyrer Tanz in G, nr. 55
C:traditionell
R:Steirer
A:Hallstatt, Salzkammergut
B:Corpus Musicae Popularis Austriacae (COMPA), 5.Band: J.M.Schmalnauer " Tanz Musik", Verlag Boehlau, Wien 1996
S:manuscript des Johann Michael Schmalnauer um 1820
N:im der quelle in G
Z:abc transcription Simon Wascher
F:http://simonwascher.info/TradArchiv/
M:3/4
L:1/8
K:G
V:1
%violino 1mo
.B.d.g |\
Tf2 (cDcD) | F2 (Ac).c.f | g2 (Bd).d.B | G2 Bddg |\
Tf2 (cDcD) | F2 (Ac).c.f | g2 (Bd).d.B | G3 :|
|: .B.d.g |\
f2 [c2D2] [c2D2] | F2 (Ac).c.A | d2 [B2D2] [B2D2] | [G2G,2] Bddg |\
f2 [c2D2] [c2D2] | F2 (Ac).c.A | d2 [B2D2] [B2D2] | G3 :|
V:2
%violino 2do
.G.B.d |\
d2 (ADAD) | D2 (FA).A.c | B2 (GB).B.G | B,2 GBBd |\
d2 (ADAD) | D2 (FA).A.c | B2 (GB).B.G | B,3 :|
|: .G.B.e |\
d2 [A2D2] [A2D2] | D2 (FA).A.F | B2 [G2G,2] [G2G,2] | B,2 GBBd |\
d2 [A2D2] [A2D2] | D2 (FA).A.F | B2 [G2G,2] [G2G,2] | B,3 :|
